X:1
T:Serres chaudes
T:Fauves las
T:4. Fauves las
T:Ernest Chausson
T:Maurice Maeterlinck
T:Serres chaudes
T:Creative Commons copyright waiver (CC0 1.0 Universal) 
T:Creative Commons copyright waiver (CC0 1.0 Universal) 
C:Ernest Chausson
Z:Maurice Maeterlinck
Z:Creative Commons copyright waiver (CC0 1.0 Universal)
L:1/8
M:4/4
K:Ab
V:1 treble nm="Voice" snm="Vo."
V:1
 z2 c2- cc cc | =d4- d2 dd | c4 z2 cc | =d3 d z e ee | =e8 | z _e e4 =A2 | z2 cc c3 c | %7
w: O * les pas- si-|ons * en al-|lées, Et les|ri- res et les san-|glots!|Ma- la- des|et les yeux mi-|
 d4- dd e_f | =e=B =AG G2- G z | z2 =e=d d_B (3BBB | =A4 z A A=c | =c_A GF F2 F z | %12
w: clos * Par- mi les|feuil- les ef- feuil- lées, *|Les chiens jau- nes de mes pé-|chés, Les hyè- nes|lou- ches de mes hai- nes|
 GG =A=B _B2 ^F>F | =F3 =F z2 =F=F | =EE E E3- Ec | c8 | z4 z G AB | B3 B A2 A2 | G4 _G2 F2 | %19
w: Et sur l'en- nui pâ- le des|plai- nes Les li-|ons de l'a- mour * cou-|chés!|En l'im- puis-|san- ce de leur|rêve Et lan-|
 d3 =G z G AB | c3 c d2 d2 | d4- dd e=e | _e8- | e2- e z (3ccc de | _g6 B2 | B3 B z A2 _G | %26
w: gui- des sous la lan-|gueur De leur ciel|morne * et sans cou-|leur|* * El0 les re- gar- de-|ront sans|trè- ve Les bre-|
 F4 FF FF | G4- G2 GG | B4- B z _G2- | G4 _G z GG | F4 F2 z2 | z F FF B3 B | A2 A2 _G2 F2- | %33
w: bis des ten- ta- ti-|ons * S'é- loi-|gner * len-|* tes une à|u- ne|En l'im- mo- bi- le|clair de lu- ne|
 F2 z2 z F FF | =B3 B c2 d2 | d4- d2- d z | z8 | z8 | z8 | z8 | z8 |] %41
w: * Mes im- mo-|bi- les pas- si-|ons! * *||||||

